X:1
T:the Farewell
T:the Farewell
T:William Marshall
C:William Marshall
%%score ( 1 2 ) ( 3 4 )
L:1/8
M:4/4
K:E
V:1 treble 
V:2 treble 
V:3 bass 
V:4 bass 
V:1
!p! G/>A/ |] ([GB]>[FA]) ([EG]3/2{G}[A,F]/) ([EG]/G/B/e/) g>e | %2
 (f/B/f/g/){b} [da][eg]/a/{g} f"^tr"F/[EG]/ [DF]([EG]/[DA]/) | %3
 (B3/2{B}A/) (G3/2{G}F/) (3E/G/B/ (3e/g/b/{b} [Bfa]g/f/ | %4
 (f/{gf}e/)d/c/ (B/d/)e/f/{ef} g[Ge] [Ge] G/A/ |!f! [GB]>A G[DG]/F/ (E/G/B/)e/{ef} g>e | %6
 (f/B/f/g/){b} [Bea]g/a/{g} f"^tr"([EF]/G/) [DF]([EG]/[^DA]/) | %7
 ([B,GB]>[^DA]) [EG]{G}[B,DF] (3E/G/B/ (3e/g/b/{!fermata!b} !fermata![fab]g/f/ | %8
 f/{gf}e/d/c/ c/{dc}B/A/G/{G} B[G,E][G,E] |]!p! g/>a/ | b>e g>b{d} (e3/2{fede}f/) (g>e) | %11
 a>f g/b/a/g/{g} f"^tr"F3/4{^EF}G/ [DF]g/a/ | %12
 be (g/4a/4g/4f/4)e/d/ f/{gf}e/d/c/"^tr" (c/B/){B}[EA]/G/ | %13
 (A/c/)B/e/ (d/f/)(B/a/) [Bg][Ge] [Ge]g/a/ |!f! (b>e) (g>"^tr"d) eE (c/{d}B/)(A/G/) | %15
 (B,/E/G/B/) (A/c/d/e/){e} [eg]>[df] [df] (G/A/) | %16
 ([GB]>[DA]) ([EG]3/2{G}[A,DF]/) (3[G,E]/G/B/ (3e/g/b/{!fermata!b} !fermata![Bfa]g/f/ | %17
 (f/{gf}e/)d/c/ (c/{dc}B/)A/G/{G} B[G,E][G,E] |] %18
V:2
 x |] x8 | x8 | x8 | x8 | x8 | x8 | x8 | x7 |] x | x8 | x33/4 | x8 | E2 x6 | x8 | x8 | x8 | x7 |] %18
V:3
 z |] [E,,E,]2 [B,,,B,,]2 [E,,E,]2 E,2 | [E,B,]D,/E,/ [F,B,]E, [A,,A,][^A,,^A,] B,,2 | %3
 G,C,B,A, [E,G,B,]B, [D,B,]E,/F,/ | G,A, B,B,, E,/G,/B,/E/ E, z | %5
 [E,,E,]2 [B,,B,][^B,,^B,] [C,C][B,D]/[C,A,]/ [G,B,E]2 | DE FE A,^A, B,/A,/G,/F,/ | %7
 [E,,E,][F,,F,][G,,G,][A,,A,] G,>E, !fermata![D,B,] z | E,A, B,B,, E,[E,,E,][E,,E,] |] z | %10
 [EG]/B,/[EG]/B,/ [EG]/B,/[EG]/B,/ [EG]/B,/[EG]/B,/ [EG]/B,/[EG]/B,/ | %11
 [DA]/B,/[DA]/B,/ [EG]/G,/C/^A,/[K:bass] B,/B,,/B,/A,/ B,/=A,/G,/F,/ x/4 | %12
 G,/B,/E/B,/ G,/B,/E/B,/ A,/C/E/C/ A,/=D/C/B,/ | C/A,/G, F,D, z/ E,/G,/B,/ E z | %14
 G,/B,/E/B,/ G,/E/G,/E/ G,/B,/=D [A,C][G,B,] | [E,,E,]2 C,^A, B,,B,B, z | %16
 [E,,E,]2 [B,,,B,,][^B,,,^B,,] [C,,C,] z !fermata![D,,D,] z | E,A, B,B,, [E,,E,][E,,E,][E,,E,] |] %18
V:4
 x |] x6 B,F, | x6 B,/=A,/G,/F,/ | E,4 x4 | x8 | x8 | B,2 B,2 x2 x B, | x4 B,2 x2 | x7 |] x | x8 | %11
 x4[K:bass] x17/4 | E,2 E,2 E,2 E,2 | x8 | E,2 E,2 x4 | x8 | x8 | x7 |] %18

